X:1
T:What Are We For?
T:What Are We For?
T:Sydney Levi Harkey, 1885
T:Anonymous, 1842
T:Public Domain Courtesy of the Cyber Hymnal™
T:Public Domain Courtesy of the Cyber Hymnal™
C:Sydney Levi Harkey, 1885
Z:Public Domain
Z:Courtesy of the Cyber Hymnal™
%%score ( 1 2 ) ( 3 4 )
L:1/8
Q:1/4=104
M:4/4
K:C
V:1 treble 
V:2 treble 
V:3 bass 
V:4 bass 
V:1
 [EG]2 [EG][FA] [EG]2 ([Ge][Fd]) | [Ec]2 [FA]2 [EG]3 [EG] | [Gc]2 [Gc]2 [Gc]2 ([FB][Ec]) | %3
w: 1.~Why have we lips, if *|not to sing The|prais- es of our *|
w: 2.~Why were our cur- ious *|bo- dies made, And|ev- ery part in *|
w: 3.~Why have we souls, if *|not to know The|God from whom our *|
w: 4.~Why have we life? If *|not to gain Im-|mor- tal life, ’tis *|
w: 5.~Why did the Sav- ior *|leave the sky, Hang|on a cross, and *|
w: 6.~Sure- ly it is— that *|robed in white And|made well- pleas- ing *|
 [Gd]2 [Ge]2 [Gd]4 | [EG]2 [EG][FA] [EG]2 ([Ge][Fd]) | [Ec]2 [FA]2 [EG]3 [EG] | %6
w: heav’n- ly king?|Why have we hearts, if *|not to love, Our|
w: or- der laid?|Why, but that each of *|us might stand A|
w: mer- cies flow?|Sure this can ne- ver *|be our lot, Like|
w: worse than vain;|This is the end for *|which ’twas giv’n— We|
w: bleed and die?|And why are kind per- *|sua- sions sent To|
w: in His sight,|Our souls may join the *|hap- py throng, And|
 (AB) (cd) [Ge]2 [Gc]2 | [Fd]2 ([Ec][DB]) [Ec]4 ||"^Refrain" [Gd]2 [Gd][Gd] [Gd]2 z2 | %9
w: Fa- * ther * and our|friend a- * bove?||
w: liv- * ing * won- der|from His * hand?||
w: sense- * less * brutes, to|know Him * not!|What are we for?|
w: live * on * earth, to|live in * Heav’n.||
w: call * and * win us|to re- * pent?||
w: sing * the * ev- er-|last- ing * song.||
 [Ge]2 [Ge][Ge] [Ge]2 z2 | [Gf]4 [Ge]2 [Ge]2 | [Gd]6 z2 | [EG]2 [EG][FA] [EG]2 [Ge][Fd] | %13
w: ||||
w: ||||
w: What are we for?|What are we|for?|What are we for, but to|
w: ||||
w: ||||
w: ||||
 [Ec]2 [FA]2 [EG]3 [EG] | (AB) (cd) [Ge]2 [Gc]2 | [Fd]2 ([Ec][DB]) [Ec]4 |] %16
w: |||
w: |||
w: serve the Lord, With|ev- * ery * deed, and|thought and * word?|
w: |||
w: |||
w: |||
V:2
 x8 | x8 | x8 | x8 | x8 | x8 | F2 G2 x4 | x8 || x8 | x8 | x8 | x8 | x8 | x8 | F2 G2 x4 | x8 |] %16
V:3
 [C,C]2 [C,C][C,C] [C,C]2 [C,C]2 | [C,G,]2 [C,C]2 [C,C]3 [C,C] | %2
 [E,C]2 [E,C]2 [E,C]2 ([D,G,][C,C]) | [G,B,]2 [G,C]2 [G,B,]4 | [C,C]2 [C,C][C,C] [C,C]2 [C,C]2 | %5
 [C,C]2 [C,C]2 [C,C]3 [C,C] | ([F,C][D,D]) ([E,C][G,B,]) C2 [E,G,]2 | [F,A,]2 G,2 [C,G,]4 || %8
 [G,B,]2 [G,B,][G,B,] B,2 x2 | [C,C]2 [E,C][G,C] C2 ^C2 | [B,D]4 C2 C2 | [G,B,]6 z2 | %12
 [C,C]2 [C,C][C,C] [C,C]2 [C,C][C,C] | [C,G,]2 [C,C]2 [C,C]3 [C,C] | %14
 ([F,C][D,D]) ([E,C][G,B,]) C2 [E,G,]2 | [F,A,]2 G,2 [C,G,]4 |] %16
V:4
 x8 | x8 | x8 | x8 | x8 | x8 | x4 C2 x2 | x2 G,2 x4 || x4 (G,F,E,D,) | x4 ^CB, x2 | x4 C2 C2 | x8 | %12
 x8 | x8 | x4 C2 x2 | x2 G,2 x4 |] %16

